X: 3
P: Bremsen, schottis av Stellan Meijer
R: shottish
O: Kalle Alml\"of & Jonny Soling
B:
D:  Giga GCD-14 (1991)
Z: 1997 by John Chambers <jc@trillian.mit.edu>
N:
M: 4/4
L: 1/8
K: A
|: fed | "A"cA ce a2 ga | ba ag "D"d4 | "E7"fe ed Bc de | "A"fe ec Af ed |
|   "A"cA ce a2 ga | ba ag "D"d4 | "E7"fe ed Be (3efg | "A" ab ag a :|
K:D
|: ABc | "D"d2 f2 fD EF | "G"G2 B2 "A7"A4 | cd cA B2 c2 | "D"df ed cA Bc |
| "D"d2 f2 fD EF | "G"G2 B2 "A7"A4 | cd cA B2 c2 | "D"d4- d :|
